!!!!SEGMENT: Sil2025-O_virgo_benedicta.krn
!!!id: Sil2025
!!!AGN: Motet
!!!SCT: Kirsch (1970)
!!!voices: 4
!!!COM: Andreas de Silva
!!!OTL: O virgo benedicta
**kern	**kern	**kern	**kern
*part4	*part3	*part2	*part1
*staff4	*staff3	*staff2	*staff1
*I"Bassus	*I"Tenor	*I"Altus	*I"Superius
*I'B	*I'T	*I'A	*I'S
*clefGv2	*clefG2	*clefG2	*clefG2
*k[]	*k[]	*k[]	*k[]
*C:	*C:	*C:	*C:
*M2/1	*M2/1	*M2/1	*M2/1
*met(C|)	*met(C|)	*met(C|)	*met(C|)
!!section: Prima pars: O virgo benedicta
!!!OMD: Prima pars: O virgo benedicta
=1	=1	=1	=1
0c	0r	1r	1c
.	.	1c	[1e
=2	=2	=2	=2
0c	1c	1.e	2e]
.	.	.	4d
.	.	.	4c
.	[1e	.	1g
.	.	4d	.
.	.	4c	.
=3	=3	=3	=3
[0c	2e]	1g	2c
.	4d	.	1e
.	4c	.	.
.	1g	2.c	.
.	.	.	4d
.	.	4d	4c
=4	=4	=4	=4
0c]	2.c	4e	1g
.	.	4f	.
.	.	2g	.
.	4d	.	.
.	4e	2a	1c
.	4f	.	.
.	[2e	[2g	.
=5	=5	=5	=5
1r	2e]	2g]	2r
.	4d	4f	2c
.	4c	4e	.
1G	[1B	2d	[1g
.	.	2e	.
=6	=6	=6	=6
1.B	1B]	4d	2g]
.	.	4c	.
.	.	4B	2d
.	.	4A	.
.	1r	2G	1g
4A	.	[2g	.
4G	.	.	.
=7	=7	=7	=7
1d	2r	4g]	1a
.	.	4f#i	.
.	2d	4f#i	.
.	.	8eL	.
.	.	8f#iJ	.
1G	2d	[1g	1b
.	2d	.	.
=8	=8	=8	=8
[0c	4e	1g]	1.cc
.	4d	.	.
.	4e	.	.
.	4f	.	.
.	2.g	1e	.
.	.	.	4b
.	4f	.	4a
=9	=9	=9	=9
1c]	4e	1c	2g
.	4d	.	.
.	1c	.	4e
.	.	.	4f
1G	.	4d	4g
.	.	4c	4a
.	2B	4d	2b
.	.	4e	.
=10	=10	=10	=10
0A	0c	2f	2a
.	.	1e	1g
.	.	4d	2f#i
.	.	4c	.
=11	=11	=11	=11
0G	0d	0B	1g
.	.	.	2r
.	.	.	[2g
=12	=12	=12	=12
0r	0r	2r	2g]
.	.	1c	2g
.	.	.	2a
.	.	2c	2g
=13	=13	=13	=13
1r	1r	2d	2b
.	.	2c	2cc
[1G	2r	1e	2g
.	[2g	.	[2cc
=14	=14	=14	=14
2G]	2g]	1d	2cc]
2G	2g	.	2b
2A	2f	2c	2a
2G	[2e	[2g	[2b
=15	=15	=15	=15
1B	2e]	2g]	4b]
.	.	.	4a
.	1d	2g	1g
1A	.	2a	.
.	2c	[2cc	2f#i
=16	=16	=16	=16
0G	2d	2cc]	2g
.	1g	4b	2e
.	.	4a	.
.	.	1b	1d
.	2g	.	.
=17	=17	=17	=17
1r	2a	2e	2c
.	2g	2.g	2.e
2r	2.b	.	.
.	.	4f	4f
[2G	.	2e	[2g
.	4a	.	.
=18	=18	=18	=18
2G]	4g	1d	4g]
.	4f	.	4a
2G	2g	.	2b
2A	2c	2r	2cc
2G	2g	[2d	[2dd
=19	=19	=19	=19
2B-X	2f	2d]	4dd]
.	.	.	4cc
2c	2e	2e	1cc
1G	1d	1g	.
.	.	.	2b
=20	=20	=20	=20
1r	0c	2r	[0cc
.	.	2g	.
2r	.	1g	.
2g	.	.	.
=21	=21	=21	=21
1g	2r	1e	0cc]
.	2g	.	.
1e	1g	2c	.
.	.	[2g	.
=22	=22	=22	=22
1c	1e	4g]	2r
.	.	4f	.
.	.	4e	2g
.	.	4d	.
2r	1c	2e	1g
2c	.	[2g	.
=23	=23	=23	=23
1c	2r	2g]	1e
.	2cc	2g	.
1A	1cc	2a	1c
.	.	2a	.
=24	=24	=24	=24
1G	1b	2d	2r
.	.	1e	2g
2r	1g	.	1g
2c	.	4d	.
.	.	4c	.
=25	=25	=25	=25
2c	2r	1cc	1e
2c	2g	.	.
2G	2g	2b	2d
[2G	2g	[2b	[2dd
=26	=26	=26	=26
4G]	0d	4b]	4dd]
4A	.	4a	4cc
4B	.	2g	2b
4c	.	.	.
2d	.	2f	2a
2G	.	2g	[2dd
=27	=27	=27	=27
2.d	2r	2a	4dd]
.	.	.	4cc
.	2d	2.dd	2b
4e	.	.	.
2f	2d	.	2a
.	.	4cc	.
2g	2e	2b	2g
=28	=28	=28	=28
2d	2f	2a	2a
2G	1g	2g	2.dd
1d	.	1a	.
.	.	.	4cc
.	2f#i	.	4b
.	.	.	4a
=29	=29	=29	=29
1G	[0g	2g	1b
.	.	2d	.
2r	.	2e	2r
2G	.	[2d	2b
=30	=30	=30	=30
2G	1g]	2d]	2b
2G	.	1e	2b
1c	2r	.	1cc
.	2g	4d	.
.	.	4c	.
=31	=31	=31	=31
2G	2g	2d	1b
2.g	2g	2e	.
.	1a	1d	1r
4f#i	.	.	.
4f#i	.	.	.
8eL	.	.	.
8f#iJ	.	.	.
=32	=32	=32	=32
2g	0g	2r	2r
2G	.	2d	2b
2G	.	2d	2b
2G	.	2d	2b
=33	=33	=33	=33
1c	2r	1e	1cc
.	2g	.	.
1G	2g	2d	2b
.	2g	[2g	[2dd
=34	=34	=34	=34
2r	1a	2g]	4dd]
.	.	.	4cc
2d	.	2f	2dd
2e	[1g	2g	2b
[2c	.	2e	2cc
=35	=35	=35	=35
2c]	0g_	1d	1dd
2B	.	.	.
2c	.	2.c	2g
2e	.	.	[2cc
.	.	4B	.
=36	=36	=36	=36
2d	1g]	2G	2cc]
2G	.	2d	2b
1c	2r	4e	2cc
.	.	4d	.
.	2a	4e	2c
.	.	4f	.
=37	=37	=37	=37
1G	2b	1g	2d
.	1g	.	2e
2r	.	1a	2d
2d	2f	.	2dd
=38	=38	=38	=38
2e	2g	2r	2b
1c	2e	2g	2cc
.	1d	2g	1dd
2B	.	2g	.
=39	=39	=39	=39
2.c	2r	2e	2g
.	2c	2.g	2cc
4B	.	.	.
1G	2d	.	2b
.	.	4f	.
.	[2e	8gL	[2g
.	.	8f	.
.	.	8e	.
.	.	8dJ	.
=40	=40	=40	=40
0A	4e]	2c	2g]
.	4d	.	.
.	4c	1cc	4f#i
.	4B	.	4e
.	1c	.	1f#i
.	.	4b	.
.	.	4a	.
=41	=41	=41	=41
0G;	0d;	0b;	0g;
=42	=42	=42	=42
0G	0g	0d	0b
=43	=43	=43	=43
1G	1g	1d	1b
1c	1g	1e	1cc
=44	=44	=44	=44
0G	1g	0d	[0b
.	2r	.	.
.	[2g	.	.
=45	=45	=45	=45
2r	2g]	1r	0b]
1g	2e	.	.
.	1g	2r	.
2e	.	[2g	.
=46	=46	=46	=46
1g	1c	2g]	0r
.	.	2e	.
2c	1r	1g	.
[2g	.	.	.
=47	=47	=47	=47
2g]	0r	2c	0r
2f	.	1cc	.
2e	.	.	.
2d	.	2b	.
=48	=48	=48	=48
2c	0r	2a	0r
2.B	.	2.g	.
4A	.	4e	.
[2d	.	[2f	.
=49	=49	=49	=49
4d]	0r	4f]	0r
4c	.	4e	.
1c	.	4d	.
.	.	4c	.
.	.	1d	.
2B	.	.	.
=50	=50	=50	=50
[0c	2r	1c	1r
.	1g	.	.
.	.	1g	2r
.	2e	.	[2g
=51	=51	=51	=51
0c]	1g	2e	2g]
.	.	1g	2e
.	2c	.	1g
.	[2g	2c	.
=52	=52	=52	=52
0r	2g]	0r	2c
.	2f	.	1cc
.	2e	.	.
.	[2d	.	2b
=53	=53	=53	=53
1r	2d]	2r	2a
.	1a	1f	1cc
2r	.	.	.
[2G	[2g	2d	[2b
=54	=54	=54	=54
2G]	4g]	2.g	4b]
.	4f	.	4a
2G	4e	.	4g
.	4d	8aL	4f
.	.	8bJ	.
2A	2c	2cc	2e
2B	[2g	[2dd	2d
=55	=55	=55	=55
1c	2g]	4dd]	0g
.	.	4g	.
.	4f	1cc	.
.	4e	.	.
1G	1d	.	.
.	.	2b	.
=56	=56	=56	=56
2r	1c	1cc	2r
1c	.	.	1e
.	2r	2r	.
2c	[2g	[2cc	2e
=57	=57	=57	=57
1c	2g]	2cc]	1e
.	2g	2cc	.
[1c	1g	1cc	[1e
=58	=58	=58	=58
1c]	0g	1cc	1e]
[1G	.	1b	2d
.	.	.	[2g
=59	=59	=59	=59
1G]	0d	2.g	4g]
.	.	.	4a
.	.	.	4b
.	.	4a	4cc
2r	.	4b	2dd
.	.	4cc	.
[2G	.	[2dd	2b
=60	=60	=60	=60
4G]	2r	4dd]	1g
4A	.	4cc	.
4B	2.dd	2b	.
4c	.	.	.
2d	.	2a	2r
.	4cc	.	.
2G	2b	2g	2dd
=61	=61	=61	=61
2d	2a	2f	2dd
2e	2g	2.g	2cc
1d	1a	.	1dd
.	.	4f#i	.
.	.	4f#i	.
.	.	8eL	.
.	.	8f#iJ	.
=62	=62	=62	=62
[0G	1b	0g	0dd
.	2r	.	.
.	[2g	.	.
=63	=63	=63	=63
0G]	2g]	0r	2r
.	2g	.	1dd
.	2g	.	.
.	2d	.	2dd
=64	=64	=64	=64
0r	2.e	0r	2b
.	.	.	2g
.	4f	.	.
.	2.g	.	2.b
.	4f	.	4cc
=65	=65	=65	=65
0r	4d	0r	2.dd
.	4c	.	.
.	4d	.	.
.	4e	.	4cc
.	4f	.	4a
.	4g	.	4b
.	[2a	.	[2cc
=66	=66	=66	=66
2r	4a]	1r	4cc]
.	4g	.	4b
1d	4f	.	4a
.	4e	.	4g
.	1f	2r	1a
2d	.	[2dd	.
=67	=67	=67	=67
2B	0g	2dd]	2.g
2G	.	2dd	.
.	.	.	4f
2B	.	2b	2d
2c	.	2g	2e
=68	=68	=68	=68
0d	2r	1b	2f#i
.	1dd	.	1g
.	.	1a	.
.	2dd	.	2f#i
=69	=69	=69	=69
2r	2b	1g	1g
2.e	2g	.	.
.	2b	2r	1e
4d	.	.	.
2c	2cc	[2g	.
=70	=70	=70	=70
2B	1dd	2g]	2d
2G	.	2g	2.g
2c	2.g	2e	.
.	.	.	4f
[2c	.	2c	4e
.	4f	.	4d
=71	=71	=71	=71
4c]	2e	2e	2c
4B	.	.	.
2A	2c	2f	2.cc
1G	1d	[1g	.
.	.	.	4b
.	.	.	4b
.	.	.	8aL
.	.	.	8bJ
=72	=72	=72	=72
[0cl	[0cl	2g]	[0ccl
.	.	4f	.
.	.	4e	.
.	.	2.a	.
.	.	4g	.
=73	=73	=73	=73
00c]	00c]	00gl	00cc]
==	==	==	==
*-	*-	*-	*-
!!!system-decoration: [*]
!!!RDF**kern: i = editorial accidental
!!!RDF**kern: l = terminal long
!!!ENC: Benjamin Ory
!!!END: 2023/9/16
!!!EED: Benjamin Ory
!!!EEV: 2023/09/16
!!!YEC: Copyright 2023 Benjamin Ory, All Rights Reserved
!!!ONB: Translated from MusicXML on 2023/09/16
